src/assets/icons/eraser.svg

<svg width="14" height="14" viewBox="0 0 14 14" fill="none" xmlns="http://www.w3.org/2000/svg">
<g id="eraser">
<g clip-path="url(#clip0_156_4607)">
<path id="Vector" fill-rule="evenodd" clip-rule="evenodd" d="M1.33314 8.6851C1.25171 8.76653 1.25171 8.89151 1.33314 8.97293L5.02704 12.6668C5.0609 12.7007 5.10229 12.7205 5.14495 12.7262C5.18713 12.712 5.23129 12.7022 5.27689 12.6972C5.29029 12.6888 5.30304 12.6787 5.31487 12.6668L8.5698 9.41191L4.58807 5.43017L1.33314 8.6851ZM7.0874 12.6933L13.5663 6.2144C14.1445 5.63619 14.1445 4.70577 13.5663 4.12756L9.87241 0.433656C9.2942 -0.144552 8.36379 -0.144552 7.78558 0.433656L4.19903 4.02021C4.17649 4.03738 4.15484 4.05626 4.13425 4.07686C4.11366 4.09745 4.09478 4.1191 4.0776 4.14163L0.433634 7.7856C-0.144575 8.36381 -0.144575 9.29423 0.433634 9.87244L4.12754 13.5663C4.49829 13.9371 5.01385 14.0701 5.48852 13.9654H12.1317C12.483 13.9654 12.7678 13.6806 12.7678 13.3294C12.7678 12.9781 12.483 12.6933 12.1317 12.6933H7.0874ZM12.6668 5.3149L9.46931 8.51241L5.48757 4.53067L8.68508 1.33316C8.76651 1.25173 8.89148 1.25173 8.97291 1.33316L12.6668 5.02707C12.7482 5.10849 12.7482 5.23347 12.6668 5.3149Z" fill="black"/>
</g>
</g>
<defs>
<clipPath id="clip0_156_4607">
<rect width="14" height="14" fill="white"/>
</clipPath>
</defs>
</svg>

<svg xmlns="http://www.w3.org/2000/svg" fill="none" viewBox="0 0 14 14"><g clip-path="url(#a)"><path fill="#000" fill-rule="evenodd" d="M1.333 8.685a.2.2 0 0 0 0 .288l3.694 3.694a.2.2 0 0 0 .118.06.6.6 0 0 1 .132-.03.2.2 0 0 0 .038-.03L8.57 9.412 4.588 5.43zm5.754 4.008 6.48-6.479a1.47 1.47 0 0 0 0-2.086L9.871.434a1.47 1.47 0 0 0-2.086 0L4.199 4.02a.6.6 0 0 0-.121.122L.434 7.786a1.47 1.47 0 0 0 0 2.086l3.694 3.694c.37.371.886.504 1.36.4h6.644a.636.636 0 1 0 0-1.273zm5.58-7.378L9.469 8.512 5.488 4.531l3.197-3.198a.2.2 0 0 1 .288 0l3.694 3.694a.2.2 0 0 1 0 .288" clip-rule="evenodd"/></g><defs><clipPath id="a"><path fill="#fff" d="M0 0h14v14H0z"/></clipPath></defs></svg>
